X:1
T:Title
%%score { 1 | ( 2 3 ) }
L:1/8
Q:1/4=100
M:3/4
K:F
V:1 treble nm="Grand Piano"
V:2 bass 
V:3 bass 
V:1
 [A,C]4 [A,CF]2 | [CFA]4 [CAc]2 | [CGB]4 [CFA]2 | [CFA]4 [CEG]2 | [CEG]4 [CFA]2 | [DFB]4 [Fd]2 | %6
w: Chas.~P.~Whitford *||||||
 [Ec]4 [GB]2 | A6 | C4 F2 | A4 c2 | B4 A2 | [=B,FA]4 [B,FG]2 | [B,EG]4 .[CFA]2 | [DFB]4 [B,DG]2 | %14
w: ||||||||
 [A,CF]4 [B,CE]2 | [A,CF]6 | [CEG]4 [CFA]2 | [CGB]6 | [CFA]4 [CGB]2 | [CAc]6 | [A,CF]4 [B,EG]2 | %21
w: |||||||
 [CFA]4 [DFB]2 | [CFA]4 [B,EG]2 | [A,F]6 |] %24
w: |||
V:2
 F,4 F,2 | F,4 F,2 | E,4 F,2 | C,4 C,2 | C,4 F,2 | B,,4 [B,,B,]2 | [C,G,]4 [C,C]2 | [F,CF]6 | %8
 [F,A,]4 [F,A,C]2 | [CF]4 [A,CF]2 | [G,CE]4 [F,CF]2 | D,4 D,2 | C,4 z _E | B,,4 B,,2 | C,4 C,2 | %15
 F,6 | C,4 C,2 | C,6 | F,4 F,2 | F,6 | F,4 C,2 | F,4 B,,2 | C,4 C,2 | F,,6 |] %24
V:3
 x6 | x6 | x6 | x6 | x6 | x6 | x6 | x6 | x6 | x6 | x6 | x6 | z2 z2 F,2 | x6 | x6 | x6 | x6 | x6 | %18
 x6 | x6 | x6 | x6 | x6 | x6 |] %24

